X: 24563
T: Lumsden's Rant
R: reel
M: 4/4
K: Amixolydian
|:A2c2 BAAc|Acfc e2ef|A2c2 BAAc|aecA B2Bc|
A2c2 BAAc|Acfc e2ef|eaaf ecce|aAcB A2Ac:|
|:a2A2 feef|Aadf e2ef|a2A2 feef|ecBA B2Bc|
a2A2 feef|Aadf e2ef|eaaf ecce|aAcB A4:|
|:A2Af ecce|Aadf e2ef|A2Af ecce|aecA B2Bc|
A2Af ecce|Aadf e2ef|eaaf ecce|aAcB A2Ac:|
|:aAca aeef|aAca e2ef|aAca aeef|ecBA B2Bc|
aAca aeef|aAca e2ef|eaaf ecce|aAcB A4:|

